epam-assets/icon-sources/18/social-network-facebook.svg

<svg width="18" height="18" viewBox="0 0 18 18" fill="none" xmlns="http://www.w3.org/2000/svg">
<path fill-rule="evenodd" clip-rule="evenodd" d="M12.75 1.5V1.5V1.5V4.5H11.25C10.7325 4.5 10.5 5.1075 10.5 5.625V7.5V7.5H12.75V10.5H10.5V16.5H7.5V10.5H5.25V7.5H7.5V4.5C7.5 2.84315 8.84315 1.5 10.5 1.5H12.75Z" fill="#6C6F80"/>
</svg>

<svg xmlns="http://www.w3.org/2000/svg" width="18" height="18" fill="none" viewBox="0 0 18 18">
  <path fill="#6C6F80" fill-rule="evenodd" d="M12.75 1.5v3h-1.5c-.518 0-.75.607-.75 1.125V7.5h2.25v3H10.5v6h-3v-6H5.25v-3H7.5v-3a3 3 0 0 1 3-3h2.25Z" clip-rule="evenodd"/>
</svg>
